img/flying/img-3.svg

<svg width="63" height="77" viewBox="0 0 63 77" fill="none" xmlns="http://www.w3.org/2000/svg">
<path d="M53.7984 29.779C56.7193 31.5424 56.865 35.5234 54.1139 38.6761L33.79 62.0117C31.0556 65.1548 26.4761 66.2727 23.5552 64.5092C20.6343 62.7458 20.5059 58.7566 23.2398 55.6121L43.5635 32.2767C46.2979 29.1336 50.8947 28.0074 53.7984 29.779Z" fill="#D92F84"/>
<path d="M2.32402 2.18316C4.52089 0.850912 7.36137 1.49143 8.66895 3.62037L18.3599 19.3561C19.6662 21.4739 18.9455 24.2677 16.7486 25.6C14.5517 26.9322 11.7111 26.2805 10.4037 24.1628L0.712719 8.42714C-0.593565 6.30936 0.126997 3.50421 2.32402 2.18316Z" fill="#99DDE3"/>
</svg>

<svg width="63" height="77" fill="none" xmlns="http://www.w3.org/2000/svg"><path d="M53.798 29.779c2.921 1.763 3.067 5.744.316 8.897L33.79 62.012c-2.734 3.143-7.314 4.26-10.235 2.497-2.92-1.763-3.05-5.752-.315-8.897l20.323-23.335c2.735-3.143 7.332-4.27 10.235-2.498z" fill="#D92F84"/><path d="M2.324 2.183C4.521.851 7.361 1.491 8.669 3.62l9.69 15.736c1.307 2.118.586 4.912-1.61 6.244-2.197 1.332-5.038.68-6.345-1.437L.713 8.427C-.594 6.31.127 3.504 2.324 2.183z" fill="#99DDE3"/></svg>
